X:1
T:Ecce quam bonum
T:Byrd edit BMarble
T:Ecce quam bonum
T:Copyright © 2016 by CPDL.  This edition can be fully distributed, duplicated, performed, and recorded. 
T:Copyright © 2016 by CPDL.  This edition can be fully distributed, duplicated, performed, and recorded. 
T:Copyright © 2016 by CPDL.  This edition can be fully distributed, duplicated, performed, and recorded. 
T:Copyright © 2016 by CPDL.  This edition can be fully distributed, duplicated, performed, and recorded. 
T:Copyright © 2016 by CPDL.  This edition can be fully distributed, duplicated, performed, and recorded. 
T:Copyright © 2016 by CPDL.  This edition can be fully distributed, duplicated, performed, and recorded. 
T:Copyright © 2016 by CPDL.  This edition can be fully distributed, duplicated, performed, and recorded. 
T:Copyright © 2016 by CPDL.  This edition can be fully distributed, duplicated, performed, and recorded. 
T:Copyright © 2016 by CPDL.  This edition can be fully distributed, duplicated, performed, and recorded. 
T:Copyright © 2016 by CPDL.  This edition can be fully distributed, duplicated, performed, and recorded. 
T:Copyright © 2016 by CPDL.  This edition can be fully distributed, duplicated, performed, and recorded. 
C:Byrd
C:edit BMarble
Z:Copyright © 2016 by CPDL.  This edition can be fully distributed, duplicated, performed, and recorded.
Z:
%%score [ 1 2 3 4 ]
L:1/8
Q:1/2=100
M:4/2
K:Eb
V:1 treble nm="Soprano" snm="S."
V:2 treble nm="Alto" snm="A."
V:3 treble-8 transpose=-12 nm="Tenor" snm="T."
V:4 bass nm="Baritone" snm="Bar."
V:1
 z16 | z16 | z8 E8 | G4 G4 B8 | F4 B4 A4 G4 | G2 F2 G2 A2 B2 AG F2 G2 | F2 E2 E2 DC D4 B,2 C2 | %7
w: ||Ec-|ce quam bo-|num et quam ju-|cun- * * * * * * * *|* * * * * dum, ju- *|
 D2 E2 F6 E2 E4- | (E4 D4) E6 E2 | D4 B,4 z8 | F2 G2 A2 F2 G4 E2 G2 | F8 E8 | z8 G2 A2 B2 G2 | %13
w: * * * * cun-|* * dum, ju-|cun- dum,|ha- bi- ta- re fra- tres in|u- num,|ha- bi- ta- re|
 A4 G2 E2 (F6 G2 | A2 G2 F4) E8 | z8 G2 A2 B2 G2 | c8 B4 G4 | B6 A2 G4 F2 E2 | D2 CD E8 D4 | %19
w: fra- tres in u- *|* * * num,|ha- bi- ta- re|fra- tres in|u- * * * *||
 E8 z8 | z8 B4 B2 A2 | G4 E2 F2 G4 F4 | E2 E2 B8 =A4 | B4 F4 G4 F4 | F16 | z8 B4 B2 _A2 | %26
w: num.|Si- cut un-|guen- tem in ca- pi-|te, in ca- pi-|te, in ca- pi-|te,|si- cut un-|
 G4 F2 G2 A6 G2 | F4 F4 G6 G2 | F4 F6 E2 D4- | D4 C4 C4 (B,2 C2 | D2 E2 F2 D2) E8 | B8 A8 | G8 F8 | %33
w: guen- tem in ca- pi-|te, in ca- pi-|te: quod de- scen-|* dit in bar- *|* * * * bam,|quod de-|scen- dit|
 E8 B6 =AG | =A2 B4 A2 B8- | B16 | z4 G8 F4 | (_A4 G4) F8 | z8 E8 | F8 G6 FE | F6 G2 A4 G4- | %41
w: in bar- * *|* * * bam,|_|bar- bam|Aa- * ron,|bar-|bam Aa- * *||
 G4 F6 E2 G4 | F4 (E8 D4) | E4 A4 G4 F4- | F2 E2 E8 D4 | E16 || z16 | z16 | z16 | z8 B6 A2 | %50
w: |ron, Aa- *|ron, bar- bam Aa-||ron.||||Quod de-|
 G4 E4 B4 G4- | G4 E4 F6 G2 | =A4 B4 (c4 B4-) | (B4 =A4) B8 | z8 z4 G4- | G4 F8 E4 | _A8 G8 | G16 | %58
w: scen- dit in o-|* ram ve- sti-|men- ti e- *|* * jus:|si-|* cut ros|Her- mon,|Her-|
 G8 z4 G4- | G4 G4 E8 | C4 C4 (c6 B2 | A2) F2 (c8 =B4) | c8 (_B6 A2) | G8 z4 G4- | G4 G4 E8 | %65
w: mon, qui|_ de- scen-|dit in mon- *|* tem Si- *|on, Si- *|on, qui|_ de- scen-|
 C4 C4 (c6 B2 | A2) F2 A8 (G2 F2 | G8) z4 B4- | B2 B2 B4 B8 | B8 B4 A4- | A4 G4 A6 A2 | G8 z4 G4- | %72
w: dit in mon- *|* tem Si- on. _|_ Quo-|* ni- am il-|lic man- da-|* vit Do- mi-|nus be-|
 G4 F4 G4 E4 | (A4 G8 F4) | G16 | z4 G4 A8 | F4 G8 F4- | F4 E4 D6 D2 | C4 c8 B4- | B4 B4 B4 A4 | %80
w: * ne- di- cti-|o- * *|nem:|et vi-|tam us- que|_ in sæ- cu-|lum, us- que|_ in sæ- cu-|
 G8 z8 | z4 G4 B8 | G4 c8 B4 | G4 A6 G2 E2 F2 | G2 A2 G2 FE F2 B,2 B4- | B4 =A4 B8 | z4 B6 B2 _A4 | %87
w: lum,|et vi-|tam us- que|in sæ- * * *||* cu- lum,|us- que in|
 G6 FE D2 E2 F4- | F2 E2 E8 D4 | E16 |] %90
w: sæ- * * * * *|* * * cu-|lum.|
V:2
 B,8 C4 C4 | E8 B,4 E4 | D4 C4 C2 B,2 C2 D2 | E2 F2 G2 FE F2 B,2 E4- | E4 D4 E8 | z4 E4 D6 G,2 | %6
w: Ec- ce quam|bo- num et|quam ju- cun- * * *||* * dum,|et quam ju-|
 C4 B,4 B,8 | z16 | F2 G2 A2 F2 G4 E2 G2 | F8 E8 | D2 (E4 D2) E8 | z4 F2 G2 A2 G2 A4 | %12
w: cun- * dum,||ha- bi- ta- re fra- tres in|u- num,|in un- * num,|ha- bi- ta- re fra-|
 G2 E2 F4 E8 | C2 D2 E2 C2 D4 C2 B,2 | (C2 E4 D2) E8- | E8 E2 F2 G2 E2 | A8 G4 z2 E2 | %17
w: tres in u- num,|ha- bi- ta- re fra- tres in|u- * * num,|_ ha- bi- ta- re|fra- tres in|
 (G4 F4) B,8 | z8 B4 B2 A2 | G4 E2 F2 G4 F4 | E2 B,2 E8 D4 | E8 z8 | z8 F4 F2 E2 | %23
w: u- * num.|Si- cut un-|guen- tem in ca- pi-|te, in ca- pi-|te,|si- cut un-|
 =D4 C2 D2 E4 D4 | C8 F,4 B,4- | B,4 =A,4 B,8 | z8 F4 F2 E2 | D4 C2 D2 E6 D2 | C8 z8 | F8 E8 | %30
w: guen- tem in ca- pi-|te, in ca-|* pi- te,|si- cut un-|guen- tem in ca- pi-|te:|quod de-|
 D8 C4 B,4- | B,4 (E6 D2 C4) | B,4 B8 A4- | A4 G8 F4- | F4 C4 (=D2 E2 F4-) | (F2 EF G4) F8 | %36
w: scen- dit in|_ bar- * *|bam, quod de-|* scen- dit|_ in bar- * *|* * * * bam,|
 z4 B,6 C2 D2 CB, | C2 D2 E8 D4 | E4 F2 G2 (A2 GF G2 A2) | B8 z4 B,4- | B,2 C2 D2 CB, C2 D2 E4- | %41
w: bar- bam Aa- * *||ron, bar- bam A- * * * *|ron, bar-|* bam Aa- * * * * *|
 E4 D2 C2 B,8 | (_D4 C8 B,2 A,2) | G,4 C4 B,4 A,2 B,2 | C4 B,6 A,2 F,4 | G,16 || B,6 A,2 G,4 E,4 | %47
w: * * * ron,|Aa- * * *|ron, bar- bam Aa- *||ron.|Quod de- scen- dit|
 B,4 G,8 E,4 | B,6 C2 D4 E4 | F8 G8 | z8 E8 | E4 B8 B,4 | (C4 B,4) F8- | F8 D8 | D8 C4 E4- | %55
w: in o- ram|ve- sti- men- ti|e- jus,|ve-|sti- men- ti|e- * jus:|_ si-|cut ros Her-|
 (E2 D2 C4) B,4 B,2 C2 | D2 E2 F2 D2 E2 DC =B,2 C2 | D2 B,2 E8 D4- | D2 C2 C8 =B,4 | C8 z8 | %60
w: * * * mon, Her- *||||mon,|
 z8 z4 F4- | F4 F4 D8 | C4 C4 (G6 F2 | E4) D4 (C4 _B,4) | (C2 D2 E6 F2 G4-) | G4 F6 E2 E4- | %66
w: qui|_ de- scen-|dit in mon- *|* tem Si- *|on, _ _ _ _|_ mon- tem Si-|
 (E4 D4) E8- | E8 z4 G4- | G2 G2 G4 F8 | F8 G4 E4 | C4 E8 D4 | E8 z4 E4- | E4 D4 B,4 B,4 | %73
w: * * on.|_ Quo-|* ni- am il-|lic man- da-|vit Do- mi-|nus be-|* ne- di- cti-|
 (E6 D2 C8) | D8 z4 D4 | E8 C4 F4- | F4 E8 D4- | D4 C8 =B,4 | C4 C4 E8 | D8 z8 | z4 G8 F4- | %81
w: o- * *|nem: et|vi- tam us-|* que in|_ sæ- cu-|lum, et vi-|tam|us- que|
 F2 E2 E8 D4 | E4 C4 E8 | B,4 C6 B,2 A,4 | G,4 E,4 B,8 | z4 F6 F2 E4 | D2 C2 D2 E2 F2 E2 C2 D2 | %87
w: _ in sæ- cu-|lum, et vi-|tam us- que in|sæ- cu- lum,|us- que in|sæ- * * * * * cu- *|
 E4 E,4 B,4 F,4 | B,12 B,4 | B,16 |] %90
w: lum, us- que in|sæ- cu-|lum.|
V:3
 z16 | z8 E8 | F4 F4 A8 | E4 e4 d4 G4 | B8 E4 c4 | B8 B8 | z16 | z16 | z16 | %9
w: |Ec-|ce quam bo-|num et quam ju-|cun- dum, ju-|cun- dum,||||
 B2 c2 _d2 B2 c4 A2 c2 | B8 E6 e2 | d4 B4 z2 c4 e2 | d2 e4 d2 e4 E2 E2 | F4 E4 B4 A2 G2 | %14
w: ha- bi- ta- re fra- tres in|u- num, in|u- num, in u-|* * * num, ha- bi-|ta- re fra- tres in|
 (F2 E2 B4) E8 | c2 d2 e2 A2 c4 B4 | z4 E2 F2 G2 E2 e4- | e4 d4 z2 G2 B4- | (B2 A2 G4) F8 | %19
w: u- * * num,|ha- bi- ta- re fra- tres,|ha- bi- ta- re fra-|* tres in u-|* * * num,|
 E4 (E8 D4) | E8 z8 | z8 e4 e2 _d2 | c4 B2 c2 _d4 c4 | B8 E4 B4- | B4 =A4 B8 | f4 f2 e2 d4 c2 d2 | %26
w: in u- *|num.|Si- cut un-|guen- tem in ca- pi-|te, in ca-|* pi- te,|si- cut un- guen- tem in|
 e4 d4 c8 | z8 G4 B4- | B4 =A4 B8 | z8 z4 B4- | B4 _A4 (G6 F2 | E2 F2 G4) E8 | e8 _d8 | c8 B8 | %34
w: ca- pi- te,|in ca-|* pi- te,|quod|_ de- scen- *|* * * dit,|quod de-|scen- dit|
 F8 (f6 e2 | =d2 c2) B4 (d8 | e8) d8 | z8 z4 B4- | B2 c2 d2 cB c2 d2 e4- | (e4 d4) e4 E4 | %40
w: in bar- *|* * bam, Aa-|* ron,|bar-|* bam Aa- * * * * *|* * ron, Aa-|
 B8 z4 E4- | E4 F4 G6 FE | F2 G2 A4 F8 | E8 z4 F2 G2 | A2 GF G2 A2 B8 | B16 || z16 | z16 | z16 | %49
w: ron, bar-|* bam Aa- * *||ron, bar- bam|Aa- * * * * *|ron.||||
 B6 A2 G4 E4 | B4 G8 E4 | B6 c2 d6 e2 | f4 e2 d2 c2 e2 d4 | c8 B8 | z16 | z16 | z8 z4 d4- | %57
w: Quod de- scen- dit|in o- ram|ve- sti- men- ti|e- * * * * *|* jus:|||si-|
 d4 c8 _B4 | e8 d8 | z4 c8 c4 | A8 F8 | z4 F4 f6 d2 | e2 c2 e8 d2 c2 | B2 c4 B2 c2 d2 e4- | %64
w: * cut ros|Her- mon,|qui de-|scen- dit|in mon- tem|Si- * * * *||
 e4 c4 z4 c4 | e6 d2 (c4 e4 | f8) B8- | B8 z4 e4- | e2 e2 e4 d8 | d8 e4 c4- | c4 B4 A4 F4 | %71
w: * on, in|mon- tem Si- *|* on.|_ Quo-|* ni- am il-|lic man- da-|* vit Do- mi-|
 B8 c6 B2 | A6 B2 G8 | c4 e6 d2 c4- | c4 (=B2 =A2) B8 | c16 | z4 G4 _B8 | G8 z4 d4 | e8 c4 g4- | %79
w: nus be- ne-|di- cti- o-|nem, be- ne- di-|* cti- * o-|nem:|et vi-|tam, et|vi- tam us-|
 g4 f6 e2 e4- | e4 d4 e4 c4 | B4 B4 B8- | B4 A4 G8 | z4 A4 e8 | B4 e6 f2 d4 | c6 c2 B4 G4- | %86
w: * que in sæ-|* cu- lum, us-|que in sæ-|* cu- lum,|et vi-|tam us- que in|sæ- cu- lum, in|
 G4 F6 G2 A4 | z4 B6 B2 A4 | (G4 F2 E2 F4) F4 | G16 |] %90
w: _ sæ- cu- lum,|us- que in|sæ- * * * cu-|lum.|
V:4
 z16 | z16 | z16 | z16 | B,,8 C,4 C,4 | E,8 B,,4 B,4 | A,4 G,4 G,2 F,2 G,2 A,2 | %7
w: ||||Ec- ce quam|bo- num et|quam ju- cun- * * *|
 B,2 A,G, F,2 G,2 A,2 G,2 G,2 F,E, | F,8 E,8 | z16 | z16 | B,2 C2 _D2 B,2 C4 A,2 C2 | B,8 E,8 | %13
w: |* dum|||ha- bi- ta- re fra- tres in|u- num,|
 z16 | z8 G,2 A,2 B,2 G,2 | A,8 E,8 | A,,2 B,,2 C,2 A,,2 E,8 | B,,4 B,,4 (E,4 D,2 C,2) | B,,16 | %19
w: |ha- bi- ta- re|fra- tres,|ha- bi- ta- re fra-|tres in u- * *|num.|
 z8 B,4 B,2 A,2 | G,4 E,2 F,2 G,4 F,4 | E,4 C,4 (E,4 F,4 | A,4) G,4 F,8 | z16 | %24
w: Si- cut un-|guen- tem in ca- pi-|te, in ca- *|* pi- te,||
 F,4 F,2 E,2 D,4 B,,2 C,2 | D,4 C,4 B,,4 B,,4 | E,4 B,,4 F,4 F,4 | B,8 E,8 | F,8 z4 B,4- | %29
w: si- cut un- guen- tem in|ca- pi- te, in|ca- pi- te, in|ca- pi-|te, quod|
 B,4 _A,8 G,4- | G,4 F,4 E,4 G,4- | G,2 F,2 E,2 D,2 C,2 B,,2 A,,4 | E,8 z8 | z4 E8 _D4 | C8 B,8 | %35
w: _ de- scen-|* dit in bar-||bam,|quod de-|scen- dit|
 z4 G,4 (B,6 A,2 | G,2 F,2 E,4) B,8 | z8 B,8 | E,4 (B,4 A,4 C4 | B,8) E,8 | z8 C,6 D,2 | %41
w: in bar- *|* * * bam,|bar-|bam Aa- * *|* ron,|bar- bam|
 (E,2 D,C, D,4) E,8 | z4 A,,8 B,,4 | C,6 B,,A,, B,,2 C,2 _D,4 | C,4 E,4 B,,8 | E,16 || z8 B,6 A,2 | %47
w: Aa- * * * ron,|bar- bam|Aa- * * * * *||ron.|Quod de-|
 G,4 E,4 B,4 G,4- | G,4 E,4 B,6 C2 | D4 D4 E8 | E,8 E,8- | E,4 E,4 B,8 | F,4 (G,4 =A,4 B,4) | %53
w: scen- dit in o-|* ram ve- sti-|men- ti e-|jus, ve-|* sti- men-|ti e- * *|
 F,8 z4 G,4- | G,4 F,8 E,4 | _A,8 G,8 | F,8 E,4 G,4- | G,4 C,2 D,2 E,2 C,2 G,4 | E,4 C,4 G,8 | %59
w: jus: si-|* cut ros|Her- mon,|si- cut ros|_ Her- * * * *||
 C,16 | z16 | z16 | z8 z4 G,4- | G,4 G,4 E,8 | C,4 C,4 (C6 B,2 | A,2) G,2 (A,8 G,4 | F,8) E,8- | %67
w: mon,|||qui|_ de- scen-|dit in mon- *|* tem Si- *|* on.|
 E,8 z4 E,4- | E,2 E,2 E,4 B,8 | B,8 G,4 A,4- | A,4 E,4 F,6 F,2 | E,8 z4 C,4- | C,4 D,4 E,8 | %73
w: _ Quo-|* ni- am il-|lic man- da-|* vit Do- mi-|nus be-|* ne- di-|
 C,8 A,8 | G,16 | z4 C,4 F,8 | =D,4 E,8 B,,4- | B,,4 C,4 G,6 G,2 | C,8 z4 G,4 | B,8 G,4 C4- | %80
w: cti- o-|nem:|et vi-|tam us- que|_ in sæ- cu-|lum, et|vi- tam us-|
 C4 B,4 G,4 A,4- | (A,2 G,2) (E,2 F,2 G,2 A,2 B,4) | E,16 | z8 z4 C,4 | E,8 B,,8 | F,8 D,4 E,4 | %86
w: * que in sæ-|* * cu- * * * *|lum,|et|vi- tam|us- que in|
 B,,6 C,2 D,2 E,2 F,4 | E,8 B,,8 | B,,12 B,,4 | E,16 |] %90
w: sæ- * * * cu-|lum, in|sæ- cu-|lum.|

